public/assets/img/material-icons/house_siding.svg

<svg height="24" viewBox="0 0 24 24" width="24" xmlns="http://www.w3.org/2000/svg"><path d="m19 12h3l-10-9-10 9h3v8h2v-2h10v2h2zm-11.79-2h9.58l.21.19v1.81h-10v-1.81zm7.36-2h-5.14l2.57-2.31zm-7.57 8v-2h10v2z"/></svg>

<svg xmlns="http://www.w3.org/2000/svg" width="24" height="24" viewBox="0 0 24 24"><path d="M19 12h3L12 3 2 12h3v8h2v-2h10v2h2v-8zM7.21 10h9.58l.21.19V12H7v-1.81l.21-.19zm7.36-2H9.43L12 5.69 14.57 8zM7 16v-2h10v2H7z"/></svg>
